map_marker_monochrome/openmoji_full_pentagon.svg

<svg xmlns="http://www.w3.org/2000/svg" width="24" height="24" viewBox="0 0 24 24"> <g transform="scale(0.333333333)">  <g id="line-supplement">
    <path fill="#000" d="M34.824 8.45109C35.525 7.94209 36.475 7.94209 37.176 8.45109L62.405 26.7811C63.106 27.2911 63.399 28.1931 63.132 29.0171L53.495 58.6761C53.227 59.5001 52.459 60.0581 51.593 60.0581H20.407C19.541 60.0581 18.773 59.5001 18.505 58.6761L8.868 29.0171C8.601 28.1931 8.894 27.2911 9.595 26.7811L34.824 8.45109Z"/>
  </g>
  <g id="line">
    <path fill="none" stroke="#000" stroke-width="2" d="M35.0536 8.38175C35.7546 7.87275 36.7046 7.87275 37.4056 8.38175L62.6346 26.7118C63.3356 27.2218 63.6286 28.1238 63.3616 28.9478L53.7246 58.6067C53.4566 59.4307 52.6886 59.9887 51.8226 59.9887H20.6366C19.7706 59.9887 19.0026 59.4307 18.7346 58.6067L9.09764 28.9478C8.83064 28.1238 9.12364 27.2218 9.82464 26.7118L35.0536 8.38175Z"/>
  </g></g></svg>

<svg xmlns="http://www.w3.org/2000/svg" width="24" height="24" viewBox="0 0 24 24"> <g transform="translate(0.0 0.525034900685375) scale(0.42509970004965164)">
  
  <g
     id="line-supplement"
     transform="translate(-8.0009481,-7.0015294)">
    <path
       fill="#000"
       d="m 34.824,8.45109 c 0.701,-0.509 1.651,-0.509 2.352,0 L 62.405,26.7811 c 0.701,0.51 0.994,1.412 0.727,2.236 l -9.637,29.659 c -0.268,0.824 -1.036,1.382 -1.902,1.382 H 20.407 c -0.866,0 -1.634,-0.558 -1.902,-1.382 L 8.868,29.0171 c -0.267,-0.824 0.026,-1.726 0.727,-2.236 z"
       id="path2" />
  </g>
  <g
     id="line"
     transform="translate(-8.0009481,-7.0015294)">
    <path
       fill="none"
       stroke="#000"
       stroke-width="2"
       d="m 35.0536,8.38175 c 0.701,-0.509 1.651,-0.509 2.352,0 l 25.229,18.33005 c 0.701,0.51 0.994,1.412 0.727,2.236 l -9.637,29.6589 c -0.268,0.824 -1.036,1.382 -1.902,1.382 h -31.186 c -0.866,0 -1.634,-0.558 -1.902,-1.382 L 9.09764,28.9478 c -0.267,-0.824 0.026,-1.726 0.727,-2.236 z"
       id="path5" />
  </g>
</g></svg>
